X: 98
T:Heel of the Hunt (#294), The
M:4/4
L:1/8
S:Capt. F. O'Neill
R:Reel
K:G
cd|"tr"e2 dB "tr"e2 dB|G2 AG EG G2|AGAB cBcd|eage d2:||
cd|efgf ef g2|eaag ea a2|efgf ef g2|afge d2 cd|
efgf ef g2|eaag ea a2|AGAB cBcd|eage d2||
%
% The above reel which is a variant of "The Five-Leaved Clover" in
% former O'Neill Collections, is printed as remembered from boyhood
% days at the dances, before "patrons" were proscribed.

